src/section/s2/hand-bg.svg

<svg width="375" height="862" viewBox="0 0 375 862" fill="none" xmlns="http://www.w3.org/2000/svg">
<rect width="375" height="819" fill="#397968" fill-opacity="0.5"/>
<line x1="42.5" y1="347" x2="332.5" y2="347" stroke="white"/>
<path d="M149.04 328.524L149.148 328.872H159.684C159.852 328.872 159.984 328.812 160.008 328.68C159.504 328.236 158.664 327.588 158.664 327.588L157.92 328.524H149.04ZM152.448 331.632L152.544 331.98H158.784C158.952 331.98 159.084 331.92 159.108 331.788C158.628 331.356 157.824 330.756 157.824 330.756L157.116 331.632H152.448ZM150.936 336.18L151.032 336.516H159.708C159.876 336.516 160.008 336.456 160.044 336.336C159.528 335.88 158.676 335.256 158.676 335.256L157.932 336.18H150.936ZM152.856 325.872C152.532 329.316 151.524 333.6 148.836 336.324L148.98 336.432C152.436 333.924 153.588 329.748 154.14 326.4C154.512 326.364 154.608 326.268 154.644 326.1L152.856 325.872ZM154.716 331.632V336.3H155.916V331.632H154.716ZM162.108 328.608L162.216 328.956H172.956C173.136 328.956 173.256 328.896 173.292 328.764C172.776 328.32 171.924 327.672 171.924 327.672L171.18 328.608H162.108ZM166.368 325.86C165.888 328.704 164.652 332.1 162.072 334.176L162.192 334.296C165.42 332.484 166.872 329.28 167.604 326.532C167.94 326.52 168.036 326.424 168.084 326.268L166.368 325.86ZM164.928 331.728V337.008H165.132C165.72 337.008 166.092 336.792 166.092 336.72V332.076H170.652V336.924H170.856C171.456 336.924 171.852 336.696 171.852 336.624V332.16C172.128 332.112 172.248 332.04 172.32 331.932L171.192 331.056L170.604 331.728H166.224L164.928 331.212V331.728ZM165.552 335.592V335.928H171.264V335.592H165.552ZM180.528 332.448L180.516 332.64C181.716 332.76 182.832 333.096 183.336 333.348C184.284 333.396 184.188 331.572 180.528 332.448ZM180.612 334.224L181.116 335.376C181.236 335.352 181.344 335.244 181.404 335.088C182.676 334.536 183.624 334.08 184.272 333.768L184.248 333.6C182.748 333.9 181.26 334.152 180.612 334.224ZM184.356 331.188H180.432V331.536H184.356V331.188ZM179.664 331.068V332.568C179.664 333.972 179.556 335.604 178.512 336.924L178.632 337.056C180.576 335.82 180.756 333.876 180.756 332.568V331.188H180.936L179.664 330.696V331.068ZM181.884 327.54V329.916H182.784V327.972H182.94L181.884 327.54ZM184.284 327.972H182.304V328.32H184.284V327.972ZM185.088 329.76H185.22C185.16 330.132 185.004 330.852 184.932 331.2L185.088 331.272C185.4 331.032 185.928 330.576 186.204 330.3C186.444 330.288 186.576 330.264 186.66 330.168L185.652 329.196L185.088 329.76ZM179.28 329.16L179.112 329.148C179.04 329.916 178.74 330.432 178.332 330.648C177.408 331.86 180.24 332.4 179.28 329.16ZM179.868 326.1V329.904H180.864V326.904H183.912V329.904H184.944V327.012C185.244 326.964 185.388 326.916 185.484 326.784L184.272 325.932L183.78 326.556H180.996L179.868 326.1ZM183.84 331.188H183.96V335.496C183.96 335.664 183.9 335.736 183.696 335.736C183.468 335.736 182.34 335.652 182.34 335.652V335.832C182.868 335.916 183.132 336.036 183.312 336.216C183.468 336.384 183.528 336.648 183.552 336.996C184.872 336.876 185.028 336.408 185.028 335.628V331.704C185.268 331.656 185.436 331.572 185.508 331.476L184.344 330.6L183.84 331.188ZM185.472 329.76H179.22V330.108H185.472V329.76ZM175.908 333.504C175.776 333.504 175.38 333.504 175.38 333.504V333.756C175.632 333.78 175.824 333.816 175.98 333.936C176.256 334.116 176.316 335.172 176.124 336.42C176.184 336.828 176.4 337.032 176.628 337.032C177.12 337.032 177.444 336.672 177.468 336.108C177.504 335.076 177.084 334.572 177.072 333.972C177.06 333.684 177.144 333.288 177.24 332.904C177.408 332.292 178.284 329.544 178.752 328.08L178.56 328.02C176.46 332.832 176.46 332.832 176.232 333.252C176.112 333.504 176.064 333.504 175.908 333.504ZM175.38 328.776L175.272 328.872C175.68 329.22 176.16 329.82 176.28 330.372C177.312 331.068 178.188 329.076 175.38 328.776ZM176.1 325.932L175.992 326.028C176.448 326.424 176.988 327.096 177.144 327.708C178.224 328.416 179.112 326.34 176.1 325.932ZM188.52 328.152L188.616 328.5H194.616C194.784 328.5 194.904 328.44 194.94 328.308C194.508 327.912 193.812 327.396 193.812 327.396L193.2 328.152H188.52ZM188.7 333.792L188.796 334.14H194.28C194.448 334.14 194.556 334.08 194.592 333.948C194.184 333.588 193.536 333.084 193.536 333.084L192.972 333.792H188.7ZM188.544 335.496L189.072 336.9C189.204 336.876 189.336 336.78 189.408 336.624C191.784 335.976 193.44 335.436 194.604 335.028L194.58 334.848C192.036 335.16 189.576 335.436 188.544 335.496ZM189.492 330.864V331.212H193.692V330.864H189.492ZM189.492 332.34V332.676H193.692V332.34H189.492ZM193.548 325.848C192.42 326.28 190.26 326.856 188.568 327.12L188.604 327.324C190.428 327.3 192.552 327.096 193.932 326.892C194.232 327.024 194.484 327.024 194.604 326.916L193.548 325.848ZM191.064 326.94V335.712H191.232C191.736 335.712 192.072 335.484 192.072 335.4V326.736L191.064 326.94ZM188.952 329.4V333.18H189.12C189.624 333.18 189.936 332.988 189.936 332.916V329.748H193.248V332.964H193.428C193.932 332.964 194.28 332.76 194.28 332.7V329.82C194.532 329.772 194.652 329.7 194.724 329.604L193.704 328.836L193.212 329.4H190.068L188.952 328.956V329.4ZM194.508 328.848L194.616 329.196H198.612V328.848H194.508ZM195.804 326.016C195.804 331.08 196.08 334.476 193.272 336.864L193.416 337.056C197.1 334.908 196.86 331.5 196.908 326.508C197.196 326.46 197.316 326.352 197.352 326.172L195.804 326.016ZM198.216 328.848C198.156 333.048 198.024 335.112 197.652 335.496C197.532 335.604 197.436 335.64 197.232 335.64C197.004 335.64 196.404 335.592 196.02 335.556V335.748C196.416 335.832 196.764 335.976 196.92 336.132C197.064 336.3 197.1 336.564 197.1 336.924C197.64 336.924 198.132 336.756 198.48 336.372C199.044 335.748 199.212 333.936 199.284 329.364C199.548 329.34 199.704 329.256 199.776 329.16L198.684 328.212L198.084 328.848H198.216ZM203.808 326.976H201.696L201.804 327.324H203.808V326.976ZM207.3 326.352L206.844 326.976H205.488L205.584 327.324H207.84C208.008 327.324 208.128 327.264 208.152 327.132C207.84 326.796 207.3 326.352 207.3 326.352ZM206.616 325.944L205.248 325.812V328.14H205.428C205.8 328.14 206.244 327.96 206.244 327.876V326.22C206.496 326.196 206.592 326.088 206.616 325.944ZM204.732 325.956L203.364 325.824V328.164H203.544C203.916 328.164 204.348 327.996 204.348 327.912V326.232C204.612 326.196 204.708 326.1 204.732 325.956ZM204.612 330.504L204.492 330.564C204.66 330.84 204.864 331.308 204.888 331.692C205.644 332.34 206.652 330.96 204.612 330.504ZM206.568 328.596H206.664V330.696H206.796C207.048 330.696 207.456 330.528 207.468 330.456V329.016C207.648 328.992 207.804 328.908 207.864 328.836L206.976 328.164L206.568 328.596ZM205.092 328.188V330.768H205.224C205.632 330.768 205.884 330.564 205.884 330.504V328.596H206.04L205.092 328.188ZM207.048 330.024H205.452V330.372H207.048V330.024ZM207.048 328.596H205.452V328.944H207.048V328.596ZM203.64 328.596H203.736V330.744H203.868C204.12 330.744 204.528 330.576 204.528 330.504V329.016C204.708 328.992 204.864 328.908 204.912 328.836L204.048 328.176L203.64 328.596ZM202.164 328.2V330.888H202.296C202.704 330.888 202.956 330.696 202.956 330.636V328.596H203.112L202.164 328.2ZM204.288 331.02L202.992 330.6C202.704 331.86 202.188 333.144 201.672 333.96L201.84 334.08C202.62 333.42 203.328 332.388 203.832 331.248C204.096 331.26 204.24 331.152 204.288 331.02ZM205.728 331.896H204.768V335.952H205.728V331.896ZM203.604 336.672V331.788H203.76L203.268 331.596L202.62 332.532V336.984H202.788C203.292 336.984 203.604 336.756 203.604 336.672ZM206.928 335.088L206.4 335.748H202.98V336.096H207.612C207.78 336.096 207.888 336.036 207.924 335.904C207.54 335.544 206.928 335.088 206.928 335.088ZM206.652 333.804L206.184 334.392H202.98V334.74H207.24C207.396 334.74 207.516 334.68 207.528 334.548C207.192 334.224 206.652 333.804 206.652 333.804ZM206.652 332.484L206.184 333.072H202.98V333.42H207.228C207.396 333.42 207.504 333.36 207.528 333.228C207.192 332.904 206.652 332.484 206.652 332.484ZM206.88 331.164L206.364 331.788H203.004V332.136H207.504C207.672 332.136 207.792 332.076 207.816 331.944C207.444 331.608 206.88 331.164 206.88 331.164ZM204.12 330.024H202.56V330.372H204.12V330.024ZM204.12 328.596H202.56V328.944H204.12V328.596ZM209.808 332.616H208.764C208.74 334.572 208.464 335.82 206.736 336.852L206.808 337.032C209.052 336.228 209.724 334.92 209.808 332.616ZM211.26 332.604H210.252V335.868C210.252 336.468 210.36 336.708 211.116 336.708H211.632C212.676 336.708 213.024 336.528 213.024 336.156C213.024 335.976 212.976 335.868 212.724 335.736L212.676 334.44H212.544C212.4 334.992 212.268 335.556 212.184 335.7C212.136 335.796 212.1 335.808 212.016 335.82C211.956 335.82 211.86 335.82 211.728 335.82H211.44C211.284 335.82 211.26 335.784 211.26 335.652V332.964C211.26 332.88 211.26 332.736 211.26 332.604ZM208.02 326.052V333.432H208.188C208.716 333.432 209.04 333.216 209.04 333.132V326.856H211.092V333.204H211.272C211.788 333.204 212.16 332.988 212.16 332.928V326.94C212.424 326.904 212.556 326.832 212.64 326.724L211.572 325.884L211.044 326.508H209.184L208.02 326.052ZM211.716 332.52H208.476V332.868H211.716V332.52ZM211.716 330.576H208.476V330.924H211.716V330.576ZM211.716 328.656H208.476V329.004H211.716V328.656ZM215.028 330.036L215.124 330.372H225.72C225.888 330.372 226.02 330.312 226.044 330.18C225.564 329.76 224.784 329.184 224.784 329.184L224.1 330.036H215.028ZM215.916 328.548L216.012 328.884H224.88C225.048 328.884 225.168 328.824 225.204 328.692C224.736 328.284 223.968 327.708 223.968 327.708L223.296 328.548H215.916ZM218.952 331.356H219.108L218.256 331.032L217.824 331.68V337.02H218.028C218.592 337.02 218.952 336.756 218.952 336.66V331.356ZM218.388 332.796V333.144H223.812V332.796H218.388ZM218.4 334.296V334.644H223.824V334.296H218.4ZM218.4 335.832V336.18H223.824V335.832H218.4ZM223.956 325.884C222.084 326.46 218.484 327.096 215.592 327.312L215.616 327.528C218.64 327.564 222.072 327.264 224.316 326.904C224.652 327.06 224.904 327.06 225.024 326.952L223.956 325.884ZM219.408 327.06C218.808 329.82 217.32 332.424 214.896 334.08L215.028 334.224C218.1 332.676 219.876 330.24 220.644 327.252V327.06H219.408ZM218.376 331.356V331.692H223.812V331.356H218.376ZM223.284 331.356V336.996H223.464C223.848 336.996 224.424 336.756 224.436 336.672V331.86C224.64 331.824 224.796 331.728 224.868 331.644L223.728 330.756L223.176 331.356H223.284Z" fill="white"/>
</svg>

<svg width="375" height="862" viewBox="0 0 375 862" fill="none" xmlns="http://www.w3.org/2000/svg">
<rect width="375" height="819" fill="#397968" fill-opacity="0.5"/>
<line x1="42.5" y1="347" x2="332.5" y2="347" stroke="#FFF"/>
<path fill="#FFF" d="M149,328.5l0.1,0.3h10.5c0.2,0,0.3-0.1,0.3-0.2c-0.5-0.4-1.3-1.1-1.3-1.1l-0.7,0.9H149z M152.4,331.6l0.1,0.3
	h6.2c0.2,0,0.3-0.1,0.3-0.2c-0.5-0.4-1.3-1-1.3-1l-0.7,0.9H152.4z M150.9,336.2l0.1,0.3h8.7c0.2,0,0.3-0.1,0.3-0.2
	c-0.5-0.5-1.4-1.1-1.4-1.1l-0.7,0.9H150.9z M152.9,325.9c-0.3,3.4-1.3,7.7-4,10.5l0.1,0.1c3.5-2.5,4.6-6.7,5.2-10
	c0.4,0,0.5-0.1,0.5-0.3L152.9,325.9z M154.7,331.6v4.7h1.2v-4.7H154.7z M162.1,328.6l0.1,0.3H173c0.2,0,0.3-0.1,0.3-0.2
	c-0.5-0.4-1.4-1.1-1.4-1.1l-0.7,0.9H162.1z M166.4,325.9c-0.5,2.8-1.7,6.2-4.3,8.3l0.1,0.1c3.2-1.8,4.7-5,5.4-7.8
	c0.3,0,0.4-0.1,0.5-0.3L166.4,325.9z M164.9,331.7v5.3h0.2c0.6,0,1-0.2,1-0.3v-4.6h4.6v4.8h0.2c0.6,0,1-0.2,1-0.3v-4.5
	c0.3,0,0.4-0.1,0.5-0.2l-1.1-0.9l-0.6,0.7h-4.4l-1.3-0.5V331.7z M165.6,335.6v0.3h5.7v-0.3H165.6z M180.5,332.4l0,0.2
	c1.2,0.1,2.3,0.5,2.8,0.7C184.3,333.4,184.2,331.6,180.5,332.4z M180.6,334.2l0.5,1.2c0.1,0,0.2-0.1,0.3-0.3c1.3-0.6,2.2-1,2.9-1.3
	l0-0.2C182.7,333.9,181.3,334.2,180.6,334.2z M184.4,331.2h-3.9v0.3h3.9V331.2z M179.7,331.1v1.5c0,1.4-0.1,3-1.2,4.4l0.1,0.1
	c1.9-1.2,2.1-3.2,2.1-4.5v-1.4h0.2l-1.3-0.5V331.1z M181.9,327.5v2.4h0.9V328h0.2L181.9,327.5z M184.3,328h-2v0.3h2V328z
	 M185.1,329.8h0.1c-0.1,0.4-0.2,1.1-0.3,1.4l0.2,0.1c0.3-0.2,0.8-0.7,1.1-1c0.2,0,0.4,0,0.5-0.1l-1-1L185.1,329.8z M179.3,329.2
	l-0.2,0c-0.1,0.8-0.4,1.3-0.8,1.5C177.4,331.9,180.2,332.4,179.3,329.2z M179.9,326.1v3.8h1v-3h3v3h1V327c0.3,0,0.4-0.1,0.5-0.2
	l-1.2-0.9l-0.5,0.6H181L179.9,326.1z M183.8,331.2h0.1v4.3c0,0.2-0.1,0.2-0.3,0.2c-0.2,0-1.4-0.1-1.4-0.1v0.2c0.5,0.1,0.8,0.2,1,0.4
	c0.2,0.2,0.2,0.4,0.2,0.8c1.3-0.1,1.5-0.6,1.5-1.4v-3.9c0.2,0,0.4-0.1,0.5-0.2l-1.2-0.9L183.8,331.2z M185.5,329.8h-6.3v0.3h6.3
	V329.8z M175.9,333.5c-0.1,0-0.5,0-0.5,0v0.3c0.3,0,0.4,0.1,0.6,0.2c0.3,0.2,0.3,1.2,0.1,2.5c0.1,0.4,0.3,0.6,0.5,0.6
	c0.5,0,0.8-0.4,0.8-0.9c0-1-0.4-1.5-0.4-2.1c0-0.3,0.1-0.7,0.2-1.1c0.2-0.6,1-3.4,1.5-4.8l-0.2-0.1c-2.1,4.8-2.1,4.8-2.3,5.2
	C176.1,333.5,176.1,333.5,175.9,333.5z M175.4,328.8l-0.1,0.1c0.4,0.3,0.9,0.9,1,1.5C177.3,331.1,178.2,329.1,175.4,328.8z
	 M176.1,325.9L176,326c0.5,0.4,1,1.1,1.2,1.7C178.2,328.4,179.1,326.3,176.1,325.9z M188.5,328.2l0.1,0.3h6c0.2,0,0.3-0.1,0.3-0.2
	c-0.4-0.4-1.1-0.9-1.1-0.9l-0.6,0.8H188.5z M188.7,333.8l0.1,0.3h5.5c0.2,0,0.3-0.1,0.3-0.2c-0.4-0.4-1.1-0.9-1.1-0.9l-0.6,0.7
	H188.7z M188.5,335.5l0.5,1.4c0.1,0,0.3-0.1,0.3-0.3c2.4-0.6,4-1.2,5.2-1.6l0-0.2C192,335.2,189.6,335.4,188.5,335.5z M189.5,330.9
	v0.3h4.2v-0.3H189.5z M189.5,332.3v0.3h4.2v-0.3H189.5z M193.5,325.8c-1.1,0.4-3.3,1-5,1.3l0,0.2c1.8,0,3.9-0.2,5.3-0.4
	c0.3,0.1,0.6,0.1,0.7,0L193.5,325.8z M191.1,326.9v8.8h0.2c0.5,0,0.8-0.2,0.8-0.3v-8.7L191.1,326.9z M189,329.4v3.8h0.2
	c0.5,0,0.8-0.2,0.8-0.3v-3.2h3.3v3.2h0.2c0.5,0,0.9-0.2,0.9-0.3v-2.9c0.3,0,0.4-0.1,0.4-0.2l-1-0.8l-0.5,0.6h-3.1L189,329V329.4z
	 M194.5,328.8l0.1,0.3h4v-0.3H194.5z M195.8,326c0,5.1,0.3,8.5-2.5,10.8l0.1,0.2c3.7-2.1,3.4-5.6,3.5-10.5c0.3,0,0.4-0.2,0.4-0.3L195.8,326z M198.2,328.8c-0.1,4.2-0.2,6.3-0.6,6.6c-0.1,0.1-0.2,0.1-0.4,0.1c-0.2,0-0.8,0-1.2-0.1v0.2c0.4,0.1,0.7,0.2,0.9,0.4c0.1,0.2,0.2,0.4,0.2,0.8c0.5,0,1-0.2,1.4-0.6c0.6-0.6,0.7-2.4,0.8-7c0.3,0,0.4-0.1,0.5-0.2l-1.1-0.9l-0.6,0.6H198.2z M203.8,327h-2.1l0.1,0.3h2V327z M207.3,326.4l-0.5,0.6h-1.4l0.1,0.3h2.3c0.2,0,0.3-0.1,0.3-0.2C207.8,326.8,207.3,326.4,207.3,326.4zM206.6,325.9l-1.4-0.1v2.3h0.2c0.4,0,0.8-0.2,0.8-0.3v-1.7C206.5,326.2,206.6,326.1,206.6,325.9z M204.7,326l-1.4-0.1v2.3h0.2c0.4,0,0.8-0.2,0.8-0.3v-1.7C204.6,326.2,204.7,326.1,204.7,326z M204.6,330.5l-0.1,0.1c0.2,0.3,0.4,0.7,0.4,1.1C205.6,332.3,206.7,331,204.6,330.5z M206.6,328.6L206.6,328.6l0.1,2.1h0.1c0.3,0,0.7-0.2,0.7-0.2V329c0.2,0,0.3-0.1,0.4-0.2l-0.9-0.7L206.6,328.6z M205.1,328.2v2.6h0.1c0.4,0,0.7-0.2,0.7-0.3v-1.9h0.2L205.1,328.2z M207,330h-1.6v0.3h1.6V330z M207,328.6h-1.6v0.3h1.6V328.6z M203.6,328.6L203.6,328.6l0.1,2.1h0.1c0.3,0,0.7-0.2,0.7-0.2V329c0.2,0,0.3-0.1,0.4-0.2l-0.9-0.7L203.6,328.6zM202.2,328.2v2.7h0.1c0.4,0,0.7-0.2,0.7-0.3v-2h0.2L202.2,328.2z M204.3,331l-1.3-0.4c-0.3,1.3-0.8,2.5-1.3,3.4l0.2,0.1c0.8-0.7,1.5-1.7,2-2.8C204.1,331.3,204.2,331.2,204.3,331z M205.7,331.9h-1v4.1h1V331.9z M203.6,336.7v-4.9h0.2l-0.5-0.2l-0.6,0.9v4.5h0.2C203.3,337,203.6,336.8,203.6,336.7z M206.9,335.1l-0.5,0.7H203v0.3h4.6c0.2,0,0.3-0.1,0.3-0.2C207.5,335.5,206.9,335.1,206.9,335.1z M206.7,333.8l-0.5,0.6H203v0.3h4.3c0.2,0,0.3-0.1,0.3-0.2C207.2,334.2,206.7,333.8,206.7,333.8z M206.7,332.5l-0.5,0.6H203v0.3h4.2c0.2,0,0.3-0.1,0.3-0.2C207.2,332.9,206.7,332.5,206.7,332.5z M206.9,331.2l-0.5,0.6H203v0.3h4.5c0.2,0,0.3-0.1,0.3-0.2C207.4,331.6,206.9,331.2,206.9,331.2z M204.1,330h-1.6v0.3h1.6V330z M204.1,328.6h-1.6v0.3h1.6V328.6z M209.8,332.6h-1c0,2-0.3,3.2-2,4.2l0.1,0.2C209.1,336.2,209.7,334.9,209.8,332.6z M211.3,332.6h-1v3.3c0,0.6,0.1,0.8,0.9,0.8h0.5c1,0,1.4-0.2,1.4-0.6c0-0.2,0-0.3-0.3-0.4l0-1.3h-0.1c-0.1,0.6-0.3,1.1-0.4,1.3c0,0.1-0.1,0.1-0.2,0.1c-0.1,0-0.2,0-0.3,0h-0.3c-0.2,0-0.2,0-0.2-0.2V333C211.3,332.9,211.3,332.7,211.3,332.6z M208,326.1v7.4h0.2c0.5,0,0.9-0.2,0.9-0.3v-6.3h2.1v6.3h0.2c0.5,0,0.9-0.2,0.9-0.3v-6c0.3,0,0.4-0.1,0.5-0.2l-1.1-0.8l-0.5,0.6h-1.9L208,326.1z M211.7,332.5h-3.2v0.3h3.2V332.5z M211.7,330.6h-3.2v0.3h3.2V330.6z M211.7,328.7h-3.2v0.3h3.2V328.7z M215,330l0.1,0.3h10.6c0.2,0,0.3-0.1,0.3-0.2c-0.5-0.4-1.3-1-1.3-1l-0.7,0.9H215z M215.9,328.5l0.1,0.3h8.9c0.2,0,0.3-0.1,0.3-0.2c-0.5-0.4-1.2-1-1.2-1l-0.7,0.8H215.9z M219,331.4h0.2l-0.9-0.3l-0.4,0.6v5.3h0.2c0.6,0,0.9-0.3,0.9-0.4V331.4z M218.4,332.8v0.3h5.4v-0.3H218.4z M218.4,334.3v0.3h5.4v-0.3H218.4z M218.4,335.8v0.3h5.4v-0.3H218.4z M224,325.9c-1.9,0.6-5.5,1.2-8.4,1.4l0,0.2c3,0,6.5-0.3,8.7-0.6c0.3,0.2,0.6,0.2,0.7,0L224,325.9z M219.4,327.1c-0.6,2.8-2.1,5.4-4.5,7l0.1,0.1c3.1-1.5,4.8-4,5.6-7v-0.2H219.4z M218.4,331.4v0.3h5.4v-0.3H218.4z M223.3,331.4v5.6h0.2c0.4,0,1-0.2,1-0.3v-4.8c0.2,0,0.4-0.1,0.4-0.2l-1.1-0.9l-0.6,0.6H223.3z"/>
</svg>
